hero/solid/inbox-arrow-down.svg

<svg width="24" height="24" viewBox="0 0 24 24" fill="none" xmlns="http://www.w3.org/2000/svg">
<path fill-rule="evenodd" clip-rule="evenodd" d="M5.47812 5.55887C5.67178 4.92948 6.25329 4.5 6.91179 4.5H9C9.41421 4.5 9.75 4.16421 9.75 3.75C9.75 3.33579 9.41421 3 9 3H6.91179C5.59478 3 4.43177 3.85897 4.04446 5.11774L1.63266 12.9561C1.54472 13.2419 1.5 13.5393 1.5 13.8383V18C1.5 19.6569 2.84315 21 4.5 21H19.5C21.1569 21 22.5 19.6569 22.5 18V13.8383C22.5 13.5393 22.4553 13.2419 22.3673 12.9561L19.9555 5.11774C19.5682 3.85897 18.4052 3 17.0882 3H15C14.5858 3 14.25 3.33579 14.25 3.75C14.25 4.16421 14.5858 4.5 15 4.5H17.0882C17.7467 4.5 18.3282 4.92948 18.5219 5.55887L20.7345 12.75H17.8906C16.7543 12.75 15.7155 13.392 15.2073 14.4084L14.9511 14.9208C14.697 15.429 14.1776 15.75 13.6094 15.75H10.3906C9.82242 15.75 9.30302 15.429 9.04894 14.9208L8.79271 14.4084C8.28453 13.392 7.24574 12.75 6.10942 12.75H3.26547L5.47812 5.55887Z" fill="#0F172A"/>
<path fill-rule="evenodd" clip-rule="evenodd" d="M12 2.25C12.4142 2.25 12.75 2.58579 12.75 3V9.43934L14.4697 7.71967C14.7626 7.42678 15.2374 7.42678 15.5303 7.71967C15.8232 8.01256 15.8232 8.48744 15.5303 8.78033L12.5303 11.7803C12.2374 12.0732 11.7626 12.0732 11.4697 11.7803L8.46967 8.78033C8.17678 8.48744 8.17678 8.01256 8.46967 7.71967C8.76256 7.42678 9.23744 7.42678 9.53033 7.71967L11.25 9.43934V3C11.25 2.58579 11.5858 2.25 12 2.25Z" fill="#0F172A"/>
</svg>

<svg viewBox="0 0 24 24" xmlns="http://www.w3.org/2000/svg"><g fill-rule="evenodd"><path d="M5.478 5.55v0c.19-.63.77-1.06 1.43-1.06h2.08v0c.41 0 .75-.34.75-.75 0-.42-.34-.75-.75-.75h-2.09v0c-1.32-.01-2.49.85-2.87 2.118l-2.42 7.83v0c-.09.28-.14.58-.133.88v4.16 0c0 1.65 1.34 3 3 3h15v0c1.65 0 3-1.35 3-3V13.8c0-.3-.05-.6-.14-.89l-2.42-7.84v0c-.39-1.26-1.56-2.12-2.87-2.12h-2.09V2.95c-.42 0-.75.33-.75.75 0 .41.33.75.75.75h2.08 -.001c.65-.01 1.24.42 1.43 1.05l2.21 7.19h-2.85v0c-1.14-.01-2.18.64-2.69 1.65l-.26.51v0c-.26.5-.78.82-1.35.82H10.3v0c-.57-.01-1.09-.33-1.35-.83l-.26-.52v0C8.18 13.3 7.14 12.66 6 12.66H3.15l2.21-7.2Z"/><path d="M12 2.25v0c.41 0 .75.33.75.75v6.44l1.72-1.72V7.71c.28-.31.75-.32 1.06-.04 .3.28.31.75.03 1.06 -.02.01-.03.02-.04.03l-3 3v0c-.3.29-.77.29-1.06 0l-3-3v0c-.29-.31-.27-.78.03-1.06 .28-.27.73-.27 1.02-.001l1.72 1.72V2.98v0c0-.42.33-.75.75-.75Z"/></g></svg>
